X: 318
T: A Potato For Emile
R: reel
M: 4/4
K: Bminor
|:B2dc BAFA|Bcde fgfe|dcBA BAFA|Bffb fedc|
dcBA FBAB|AFED EB,B,2|A,B,DE FABc|dfec ABB2:|
|:d2c2 B2FB|[M:6/4] ABFB ABFA Bcde|fbea dfce BdFB|dBFB A2ag fedc|
[M:4/4]d2c2 B2FB|[M:6/4] ABFB AFED EB,B,2|[M:4/4] A,B,DE FABc|dfec ABB2:|

